images/usecases/scada/oil-1.svg

<svg width="262" height="322" viewBox="0 0 262 322" fill="none" xmlns="http://www.w3.org/2000/svg">
<path d="M60.25 107C60.25 55.4995 101.999 13.75 153.5 13.75C205.001 13.75 246.75 55.4995 246.75 107C246.75 158.501 205.001 200.25 153.5 200.25C101.999 200.25 60.25 158.501 60.25 107Z" stroke="#3E9AF8" stroke-width="1.5"/>
<path fill-rule="evenodd" clip-rule="evenodd" d="M186.361 61.6979C186.99 61.5182 187.666 61.6279 188.205 61.9973C193.719 65.772 202.876 77.5462 198.052 95.3643C197.85 96.1126 197.268 96.6986 196.521 96.9063L194.285 97.528V106.363C194.285 107.576 193.302 108.559 192.089 108.559C190.876 108.559 189.893 107.576 189.893 106.363V98.7495L186.364 99.7311C185.197 100.056 183.988 99.3744 183.661 98.2085L174.968 67.2275C174.641 66.0637 175.316 64.8548 176.479 64.5226L186.361 61.6979ZM179.787 68.1452L187.298 94.9123L194.116 93.016C197.436 78.9171 190.776 69.6472 186.525 66.2194L179.787 68.1452ZM164.706 90.7877C165.914 90.6742 166.985 91.5611 167.098 92.7687L168.544 108.156L172.396 147.996H197.305C198.518 147.996 199.501 148.979 199.501 150.192C199.501 151.405 198.518 152.388 197.305 152.388H110.923C109.71 152.388 108.727 151.405 108.727 150.192V127.958C108.727 127.595 108.817 127.238 108.989 126.918L114.479 116.712C114.862 116.001 115.605 115.557 116.413 115.557H119.067V105.72C119.067 104.507 120.05 103.523 121.263 103.523C122.476 103.523 123.459 104.507 123.459 105.72V115.557H131.42C132.633 115.557 133.616 116.54 133.616 117.753V125.762H137.094C138.307 125.762 139.29 126.745 139.29 127.958V147.996H146.618L150.236 108.169C150.237 108.161 150.237 108.153 150.238 108.145L151.472 96.0321C151.594 94.8254 152.672 93.9468 153.879 94.0697C155.086 94.1926 155.964 95.2704 155.841 96.477L154.854 106.171H163.946L162.725 93.1797C162.612 91.9722 163.499 90.9012 164.706 90.7877ZM164.364 110.564H157.772L165.06 117.763L164.364 110.564ZM162.481 121.388L154.189 113.199L153.445 121.388H162.481ZM152.7 129.597L151.028 147.996H166.088L152.7 129.597ZM167.441 142.391L155.355 125.781H165.836L167.441 142.391ZM134.897 147.996V130.155H123.459V147.996H134.897ZM119.067 147.996V127.958C119.067 126.745 120.05 125.762 121.263 125.762H129.224V119.949H117.725L113.119 128.512V147.996H119.067ZM192.089 119.657C193.302 119.657 194.285 120.64 194.285 121.853V133.152C194.285 134.365 193.302 135.348 192.089 135.348C190.876 135.348 189.893 134.365 189.893 133.152V121.853C189.893 120.64 190.876 119.657 192.089 119.657Z" fill="#3E9AF8"/>
<path d="M194.193 114.321C194.193 115.534 193.21 116.517 191.997 116.517C190.784 116.517 189.801 115.534 189.801 114.321C189.801 113.108 190.784 112.125 191.997 112.125C193.21 112.125 194.193 113.108 194.193 114.321Z" fill="#3E9AF8"/>
<path fill-rule="evenodd" clip-rule="evenodd" d="M177.903 78.3769L116.792 95.5009C114.65 96.1009 113.401 98.3231 114.001 100.464C114.601 102.605 116.823 103.855 118.964 103.255L180.076 86.1308L177.903 78.3769ZM115.606 91.2715C111.129 92.526 108.517 97.1723 109.771 101.649C111.026 106.126 115.672 108.739 120.149 107.484L185.491 89.1751L180.948 72.9624L115.606 91.2715Z" fill="#3E9AF8"/>
<path fill-rule="evenodd" clip-rule="evenodd" d="M195.108 147.996V140.401C195.108 138.43 193.51 136.832 191.539 136.832C189.568 136.832 187.97 138.43 187.97 140.401V147.996H195.108ZM199.5 140.401C199.5 136.004 195.936 132.439 191.539 132.439C187.142 132.439 183.578 136.004 183.578 140.401V152.388H199.5V140.401Z" fill="#3E9AF8"/>
<path d="M0.5 110H43.5" stroke="#3E9AF8" stroke-width="1.5"/>
<line y1="-0.75" x2="80" y2="-0.75" transform="matrix(-4.37112e-08 -1 -1 4.37112e-08 150.5 298)" stroke="#3E9AF8" stroke-width="1.5"/>
<mask id="path-9-inside-1_10346_18810" fill="white">
<path d="M42.5 109.5C42.5 123.88 45.3323 138.119 50.8352 151.404C56.3381 164.689 64.4038 176.76 74.5718 186.928C84.7398 197.096 96.811 205.162 110.096 210.665C123.381 216.168 137.62 219 152 219V217.67C137.795 217.67 123.729 214.872 110.605 209.436C97.4812 204 85.5566 196.033 75.512 185.988C65.4675 175.943 57.4997 164.019 52.0636 150.895C46.6276 137.771 43.8297 123.705 43.8297 109.5H42.5Z"/>
</mask>
<path d="M42.5 109.5C42.5 123.88 45.3323 138.119 50.8352 151.404C56.3381 164.689 64.4038 176.76 74.5718 186.928C84.7398 197.096 96.811 205.162 110.096 210.665C123.381 216.168 137.62 219 152 219V217.67C137.795 217.67 123.729 214.872 110.605 209.436C97.4812 204 85.5566 196.033 75.512 185.988C65.4675 175.943 57.4997 164.019 52.0636 150.895C46.6276 137.771 43.8297 123.705 43.8297 109.5H42.5Z" fill="#3E9AF8" stroke="#3E9AF8" stroke-width="2" mask="url(#path-9-inside-1_10346_18810)"/>
<circle cx="12" cy="12" r="11.25" transform="matrix(1 0 0 -1 139.5 322)" fill="#F4F8FE" stroke="#3E9AF8" stroke-width="1.5"/>
</svg>

<svg width="262" height="322" fill="none" xmlns="http://www.w3.org/2000/svg"><path d="M60.25 107c0-51.5 41.749-93.25 93.25-93.25S246.75 55.5 246.75 107c0 51.501-41.749 93.25-93.25 93.25S60.25 158.501 60.25 107Z" stroke="#3E9AF8" stroke-width="1.5"/><path fill-rule="evenodd" clip-rule="evenodd" d="M186.361 61.698a2.195 2.195 0 0 1 1.844.3c5.514 3.774 14.671 15.548 9.847 33.366a2.194 2.194 0 0 1-1.531 1.542l-2.236.622v8.835a2.196 2.196 0 1 1-4.392 0v-7.614l-3.529.982a2.196 2.196 0 0 1-2.703-1.522l-8.693-30.981a2.195 2.195 0 0 1 1.511-2.705l9.882-2.825Zm-6.574 6.447 7.511 26.767 6.818-1.896c3.32-14.099-3.34-23.369-7.591-26.797l-6.738 1.926Zm-15.081 22.643a2.196 2.196 0 0 1 2.392 1.98l1.446 15.388 3.852 39.84h24.909a2.196 2.196 0 1 1 0 4.392h-86.382a2.196 2.196 0 0 1-2.196-2.196v-22.234c0-.363.09-.72.262-1.04l5.49-10.206a2.197 2.197 0 0 1 1.934-1.155h2.654v-9.837a2.197 2.197 0 1 1 4.392 0v9.837h7.961c1.213 0 2.196.983 2.196 2.196v8.009h3.478c1.213 0 2.196.983 2.196 2.196v20.038h7.328l3.618-39.827.002-.024 1.234-12.113a2.195 2.195 0 1 1 4.369.445l-.987 9.694h9.092l-1.221-12.991a2.197 2.197 0 0 1 1.981-2.392Zm-.342 19.776h-6.592l7.288 7.199-.696-7.199Zm-1.883 10.824-8.292-8.189-.744 8.189h9.036Zm-9.781 8.209-1.672 18.399h15.06L152.7 129.597Zm14.741 12.794-12.086-16.61h10.481l1.605 16.61Zm-32.544 5.605v-17.841h-11.438v17.841h11.438Zm-15.83 0v-20.038c0-1.213.983-2.196 2.196-2.196h7.961v-5.813h-11.499l-4.606 8.563v19.484h5.948Zm73.022-28.339c1.213 0 2.196.983 2.196 2.196v11.299a2.196 2.196 0 1 1-4.392 0v-11.299c0-1.213.983-2.196 2.196-2.196Z" fill="#3E9AF8"/><path d="M194.193 114.321a2.196 2.196 0 1 1-4.392 0 2.196 2.196 0 0 1 4.392 0Z" fill="#3E9AF8"/><path fill-rule="evenodd" clip-rule="evenodd" d="M177.903 78.377 116.792 95.5a4.026 4.026 0 1 0 2.172 7.754l61.112-17.124-2.173-7.754Zm-62.297 12.895a8.419 8.419 0 0 0 4.543 16.212l65.342-18.309-4.543-16.213-65.342 18.31ZM195.108 147.996v-7.595a3.57 3.57 0 0 0-7.138 0v7.595h7.138Zm4.392-7.595a7.962 7.962 0 1 0-15.922 0v11.987H199.5v-11.987Z" fill="#3E9AF8"/><path d="M.5 110h43M151.25 298v-80" stroke="#3E9AF8" stroke-width="1.5"/><mask id="a" fill="#fff"><path d="M42.5 109.5A109.5 109.5 0 0 0 152 219v-1.33A108.173 108.173 0 0 1 43.83 109.5H42.5Z"/></mask><path d="M42.5 109.5A109.5 109.5 0 0 0 152 219v-1.33A108.173 108.173 0 0 1 43.83 109.5H42.5Z" fill="#3E9AF8" stroke="#3E9AF8" stroke-width="2" mask="url(#a)"/><circle cx="12" cy="12" r="11.25" transform="matrix(1 0 0 -1 139.5 322)" fill="#F4F8FE" stroke="#3E9AF8" stroke-width="1.5"/></svg>
